app/images/time.svg

<svg width="20" height="20" viewBox="0 0 20 20" fill="none" xmlns="http://www.w3.org/2000/svg">
<path d="M19.2017 6.10508C18.1473 3.6454 16.3554 1.85654 13.8766 0.798739C12.6376 0.27005 11.3396 0 9.98356 0C8.62775 0 7.33931 0.2675 6.10173 0.798739C3.6434 1.85373 1.84363 3.64144 0.78732 6.10508C0.258007 7.33936 0 8.63245 0 9.98901C0 11.3458 0.258007 12.6497 0.78732 13.8842C1.84363 16.3478 3.64363 18.1463 6.10173 19.2015C7.33954 19.7328 8.62771 20 9.98356 20C11.3394 20 12.6376 19.7299 13.8764 19.2015C16.3552 18.1437 18.1471 16.3436 19.2017 13.8842C19.7326 12.6457 20 11.3458 20 9.98901C20 8.63245 19.7329 7.34354 19.2017 6.10508ZM17.6054 14.4094C16.8204 15.7564 15.7449 16.825 14.3905 17.615C13.0442 18.4005 11.5692 18.7966 9.98379 18.7966C8.79196 18.7966 7.65471 18.5669 6.57203 18.0963C5.48938 17.626 4.55461 17.0077 3.77265 16.2255C2.99069 15.4432 2.3683 14.4987 1.90291 13.4136C1.43889 12.3325 1.21402 11.1818 1.21402 9.98905C1.21402 8.40256 1.60359 6.93417 2.38418 5.59091C3.16755 4.24275 4.2432 3.17302 5.58807 2.38523C6.93271 1.59748 8.3982 1.20347 9.98356 1.20347C11.5692 1.20347 13.044 1.5998 14.3903 2.38523C15.7447 3.17534 16.8178 4.24504 17.6051 5.59088C18.3925 6.93649 18.786 8.40255 18.786 9.98901C18.786 11.5755 18.395 13.0539 17.6054 14.4094Z" fill="#979797"/>
<path d="M10.3456 9.68477V4.22645C10.3456 3.89982 10.0459 3.63637 9.70199 3.63637C9.38033 3.63637 9.0918 3.89982 9.0918 4.22645V9.76904C9.0918 9.77962 9.11405 9.82188 9.11405 9.85337C9.0918 10.0431 9.14743 10.2011 9.28046 10.3277L12.5979 13.4782C12.8199 13.6891 13.2303 13.6891 13.4522 13.4782C13.7073 13.2359 13.6905 12.8843 13.4522 12.6564L10.3456 9.68477Z" fill="#979797"/>
</svg>

<svg width="20" height="20" fill="none" xmlns="http://www.w3.org/2000/svg"><path d="M19.202 6.105C18.147 3.645 16.355 1.857 13.877.8A9.825 9.825 0 0 0 9.984 0a9.723 9.723 0 0 0-3.882.799C3.643 1.854 1.844 3.64.787 6.105A9.742 9.742 0 0 0 0 9.99c0 1.357.258 2.66.787 3.895 1.057 2.464 2.857 4.262 5.315 5.317A9.723 9.723 0 0 0 9.984 20c1.355 0 2.654-.27 3.892-.799 2.48-1.057 4.271-2.857 5.326-5.317A9.792 9.792 0 0 0 20 9.99a9.734 9.734 0 0 0-.798-3.884zm-1.597 8.304a8.775 8.775 0 0 1-3.215 3.206 8.609 8.609 0 0 1-4.406 1.182c-1.192 0-2.33-.23-3.412-.7-1.083-.471-2.017-1.09-2.8-1.872-.781-.782-1.404-1.726-1.87-2.811a8.618 8.618 0 0 1-.688-3.425c0-1.586.39-3.055 1.17-4.398a8.78 8.78 0 0 1 3.204-3.206 8.543 8.543 0 0 1 4.396-1.182 8.61 8.61 0 0 1 4.406 1.182 8.802 8.802 0 0 1 3.215 3.206 8.554 8.554 0 0 1 1.181 4.398 8.638 8.638 0 0 1-1.18 4.42z" fill="#979797"/><path d="M10.346 9.685V4.226c0-.326-.3-.59-.644-.59-.322 0-.61.264-.61.59V9.77c0 .01.022.053.022.084a.534.534 0 0 0 .166.475l3.318 3.15c.222.211.632.211.854 0a.549.549 0 0 0 0-.822l-3.106-2.971z" fill="#979797"/></svg>
